svg/u1faab.svg

<svg viewBox="0 0 128 128" xmlns="http://www.w3.org/2000/svg" xmlns:xlink="http://www.w3.org/1999/xlink">
  <g>
    <path d="M94,21.1C94,11.66,80.58,4,64.03,4c-16.55,0-31,6.95-29.98,17.09h-0.03v88.57 C34.02,117.58,47.44,124,64,124c16.56,0,29.98-6.42,29.98-14.34V21.6C93.99,21.43,94,21.27,94,21.1z" fill="#98ADB8"/>
    <g>
      <ellipse cx="64.2" cy="18.29" fill="#D9D9D9" rx="23.64" ry="11.43"/>
      <path d="M76.56,7.18c0,0,0,0.25,0,0.66C76.59,7.43,76.56,7.18,76.56,7.18z" fill="#9E9E9E"/>
    </g>
    <path d="M76.99,52.28c0-0.66-0.25-1.06-0.86-1.3c-0.57-0.23-1.4,0.01-2.25,0.23 c-1.68,0.42-3.41,0.66-4.97,0.64c-0.63-0.01-0.57-0.61-0.57-1.16c0-0.43,0-3.94,0-5.48c0-0.6-0.07-1.36-1.18-1.36 c-0.67,0-1.48,0.18-3.17,0.2c-1.69-0.01-2.5-0.2-3.17-0.2c-1.11,0-1.18,0.76-1.18,1.36c0,1.54,0,5.05,0,5.48 c0,0.55,0.06,1.15-0.57,1.16c-1.56,0.02-3.29-0.22-4.97-0.64c-0.86-0.21-1.68-0.45-2.25-0.23c-0.61,0.25-0.86,0.64-0.86,1.3 l-0.03,5.09c0.28,0.79,0.57,1.36,0.89,1.53c0.94,0.49,2.99,1.24,6.27,1.4c0.65,0.03,1.38-0.19,1.53,0.52c0.07,0.35,0,4.67,0,6.42 c0,1.59,2.3,1.76,3.54,1.86c0.27,0.02,1.35,0.02,1.61,0c1.23-0.11,3.54-0.27,3.54-1.86c0-1.75-0.07-6.07,0-6.42 c0.15-0.71,0.87-0.49,1.53-0.52c3.28-0.16,5.33-0.92,6.27-1.4c0.31-0.16,0.61-0.73,0.89-1.53L76.99,52.28z" fill="#FFFFFF"/>
    <path d="M58.59,28.55c1.6-1.54-4.16-2.87-6.88-3.8c-3.42-1.17-7-3.23-8.09-7.26 c-0.82-3.04-2.25-2.09-2.51-1.73c-0.37,0.51-1.8,3.49,0.95,6.8c1.89,2.28,4.95,4.01,7.56,4.89C53.19,28.66,57.53,29.57,58.59,28.55 z" fill="#F5F5F5"/>
    <path d="M56,13.92c0.33-1.12,3.23-1.81,4.99-1.83c3.01-0.04,6.11,2.27,6.57,3.06 c1.29,2.2-1.65,2.98-6.79,2.53C57.31,17.38,55.67,15.05,56,13.92z" fill="#F5F5F5"/>
    <path d="M73.11,15.75c-0.35-0.62-0.71-1.27-1.05-1.9c-0.36-0.65-0.35,0.05-0.43,0.32 c-0.41,1.42-1.22,2.05-1.79,2.36c-1.72,0.92-3.78,1.36-5.83,1.33c-2.06,0.02-4.11-0.41-5.83-1.33c-0.58-0.31-1.38-0.94-1.79-2.36 c-0.08-0.28-0.07-0.97-0.43-0.32c-0.35,0.63-0.7,1.28-1.05,1.9c-0.9,1.58-0.12,3.33,1.03,4.45c2.01,1.95,5.13,2.85,8.08,2.85h0h0 c2.95,0,6.07-0.9,8.08-2.85C73.23,19.07,74.01,17.32,73.11,15.75z" fill="#9E9E9E"/>
    <path d="M40.31,90.16v21.75h0.04c0.76,4.75,12.76,7.76,23.67,7.76c11.2,0,23.67-2.99,23.67-7.76V90.16H40.31 z" fill="#C62828"/>
    <path d="M87.69,90.6c0,4.77-12.46,7.76-23.67,7.76c-10.91,0-22.91-3.01-23.67-7.76 c-0.82-5.12,10.6-8.63,23.67-8.63S87.69,85.83,87.69,90.6z" fill="#F44336"/>
    <path d="M75.07,103.3c0,0-3.85,1.17-11.07,1.17s-11.07-1.17-11.07-1.17c-1.37-0.2-1.95,0.87-1.95,1.95v4.22 c0,1,0.65,1.93,1.81,2.5c2.39,1.18,6.25,1.98,10.87,1.93c0.12,0,0.23-0.01,0.35-0.01c0.12,0,0.23,0.01,0.35,0.01 c4.63,0.05,8.48-0.75,10.87-1.93c1.16-0.57,1.81-1.5,1.81-2.5v-4.22C77.03,104.17,76.44,103.1,75.07,103.3z" fill="#FFFFFF"/>
  </g>
</svg>

<svg viewBox="0 0 128 128" xmlns="http://www.w3.org/2000/svg">
  <defs/>
  <path d="M94,21.1 C94,11.66 80.58,4 64.03,4 C47.48,4 33.03,10.95 34.05,21.09 L34.02,21.09 L34.02,109.66 C34.02,117.58 47.44,124 64,124 C80.56,124 93.98,117.58 93.98,109.66 L93.98,21.6 C93.99,21.43 94,21.27 94,21.1 Z" fill="#98ADB8"/>
  <path d="M87.84,18.29 A23.64 11.43 0 1 1 40.56,18.29 A23.64 11.43 0 1 1 87.84,18.29 Z" fill="#D9D9D9"/>
  <path d="M76.56,7.18 C76.56,7.18 76.56,7.43 76.56,7.84 C76.59,7.43 76.56,7.18 76.56,7.18 Z" fill="#9E9E9E"/>
  <path d="M76.99,52.28 C76.99,51.62 76.74,51.22 76.13,50.98 C75.56,50.75 74.73,50.99 73.88,51.21 C72.2,51.63 70.47,51.87 68.91,51.85 C68.28,51.84 68.34,51.24 68.34,50.69 C68.34,50.26 68.34,46.75 68.34,45.21 C68.34,44.61 68.27,43.85 67.16,43.85 C66.49,43.85 65.68,44.03 63.99,44.05 C62.3,44.04 61.49,43.85 60.82,43.85 C59.71,43.85 59.64,44.61 59.64,45.21 C59.64,46.75 59.64,50.26 59.64,50.69 C59.64,51.24 59.7,51.84 59.07,51.85 C57.51,51.87 55.78,51.63 54.1,51.21 C53.24,51 52.42,50.76 51.85,50.98 C51.24,51.23 50.99,51.62 50.99,52.28 L50.96,57.37 C51.24,58.16 51.53,58.73 51.85,58.9 C52.79,59.39 54.84,60.14 58.12,60.3 C58.77,60.33 59.5,60.11 59.65,60.82 C59.72,61.17 59.65,65.49 59.65,67.24 C59.65,68.83 61.95,69 63.19,69.1 C63.46,69.12 64.54,69.12 64.8,69.1 C66.03,68.99 68.34,68.83 68.34,67.24 C68.34,65.49 68.27,61.17 68.34,60.82 C68.49,60.11 69.21,60.33 69.87,60.3 C73.15,60.14 75.2,59.38 76.14,58.9 C76.45,58.74 76.75,58.17 77.03,57.37 L76.99,52.28 Z" fill="#FFFFFF"/>
  <path d="M58.59,28.55 C60.19,27.01 54.43,25.68 51.71,24.75 C48.29,23.58 44.71,21.52 43.62,17.49 C42.8,14.45 41.37,15.4 41.11,15.76 C40.74,16.27 39.31,19.25 42.06,22.56 C43.95,24.84 47.01,26.57 49.62,27.45 C53.19,28.66 57.53,29.57 58.59,28.55 Z" fill="#F5F5F5"/>
  <path d="M56,13.92 C56.33,12.8 59.23,12.11 60.99,12.09 C64,12.05 67.1,14.36 67.56,15.15 C68.85,17.35 65.91,18.13 60.77,17.68 C57.31,17.38 55.67,15.05 56,13.92 Z" fill="#F5F5F5"/>
  <path d="M73.11,15.75 C72.76,15.13 72.4,14.48 72.06,13.85 C71.7,13.2 71.71,13.9 71.63,14.17 C71.22,15.59 70.41,16.22 69.84,16.53 C68.12,17.45 66.06,17.89 64.01,17.86 C61.95,17.88 59.9,17.45 58.18,16.53 C57.6,16.22 56.8,15.59 56.39,14.17 C56.31,13.89 56.32,13.2 55.96,13.85 C55.61,14.48 55.26,15.13 54.91,15.75 C54.01,17.33 54.79,19.08 55.94,20.2 C57.95,22.15 61.07,23.05 64.02,23.05 L64.02,23.05 L64.02,23.05 C66.97,23.05 70.09,22.15 72.1,20.2 C73.23,19.07 74.01,17.32 73.11,15.75 Z" fill="#9E9E9E"/>
  <path d="M40.31,90.16 L40.31,111.91 L40.35,111.91 C41.11,116.66 53.11,119.67 64.02,119.67 C75.22,119.67 87.69,116.68 87.69,111.91 L87.69,90.16 L40.31,90.16 Z" fill="#C62828"/>
  <path d="M87.69,90.6 C87.69,95.37 75.23,98.36 64.02,98.36 C53.11,98.36 41.11,95.35 40.35,90.6 C39.53,85.48 50.95,81.97 64.02,81.97 C77.09,81.97 87.69,85.83 87.69,90.6 Z" fill="#F44336"/>
  <path d="M75.07,103.3 C75.07,103.3 71.22,104.47 64,104.47 C56.78,104.47 52.93,103.3 52.93,103.3 C51.56,103.1 50.98,104.17 50.98,105.25 L50.98,109.47 C50.98,110.47 51.63,111.4 52.79,111.97 C55.18,113.15 59.04,113.95 63.66,113.9 C63.78,113.9 63.89,113.89 64.01,113.89 C64.13,113.89 64.24,113.9 64.36,113.9 C68.99,113.95 72.84,113.15 75.23,111.97 C76.39,111.4 77.04,110.47 77.04,109.47 L77.04,105.25 C77.03,104.17 76.44,103.1 75.07,103.3 Z" fill="#FFFFFF"/>
</svg>
